X: 47
T: No_140_A_Place_of_Many_Springs.krn
N: Derived from No_140_A_Place_of_Many_Springs.krn
%%abc-version 2.0
%%abcx-abcm2ps-target-version 5.9.1 (29 Sep 2008)
%%abc-creator hum2abc beta
%%abcx-conversion-date 2019/03/15 08:37:56
%%humdrum-veritas 1910954622
%%humdrum-veritas-data 3705731141
%%linebreak <none>
%%barnumbers 0
L: 1/8
M: 2/4
K: Eb clef=bass
[K:clef=bass][M:2/4]C2C3/B,/ | 
G,2F,3/E,/ ||  
[M:3/4]C3/B,/C4 ||  
[M:2/4]B,2G, z | 
C2C3/B,/ | 
G,3/F,/E,2 | 
F,3/E,/F,2- | 
F,2E,C, | 
E,3C, ||  
[M:3/4]E,E,z2C3/B,/ ||  
[M:2/4]C2CB,/B,/ ||  
[M:3/4]G,G,/F,/G,2F,2 ||  
[M:2/4]E,2G,3/F,/ ||  
[M:3/4]E,2!accent!G,!accent!F, !accent!E,!accent!C,/ z/ | 
E,F,/F,/ E,E, E,E,/E,/ | 
E,4z2 |]  



